svg/outline/maestro.svg

<?xml version="1.0" encoding="UTF-8" standalone="no"?>
<svg
   xmlns:sketch="http://www.bohemiancoding.com/sketch/ns"
   xmlns:dc="http://purl.org/dc/elements/1.1/"
   xmlns:cc="http://creativecommons.org/ns#"
   xmlns:rdf="http://www.w3.org/1999/02/22-rdf-syntax-ns#"
   xmlns:svg="http://www.w3.org/2000/svg"
   xmlns="http://www.w3.org/2000/svg"
   xmlns:sodipodi="http://sodipodi.sourceforge.net/DTD/sodipodi-0.dtd"
   xmlns:inkscape="http://www.inkscape.org/namespaces/inkscape"
   width="780px"
   height="501px"
   viewBox="0 0 780 501"
   version="1.1"
   id="svg2"
   inkscape:version="0.91 r13725"
   sodipodi:docname="maestro.svg">
  <metadata
     id="metadata39">
    <rdf:RDF>
      <cc:Work
         rdf:about="">
        <dc:format>image/svg+xml</dc:format>
        <dc:type
           rdf:resource="http://purl.org/dc/dcmitype/StillImage" />
      </cc:Work>
    </rdf:RDF>
  </metadata>
  <sodipodi:namedview
     pagecolor="#ffffff"
     bordercolor="#666666"
     borderopacity="1"
     objecttolerance="10"
     gridtolerance="10"
     guidetolerance="10"
     inkscape:pageopacity="0"
     inkscape:pageshadow="2"
     inkscape:window-width="1440"
     inkscape:window-height="851"
     id="namedview37"
     showgrid="false"
     inkscape:zoom="1.0370192"
     inkscape:cx="390"
     inkscape:cy="250.5"
     inkscape:window-x="0"
     inkscape:window-y="300"
     inkscape:window-maximized="1"
     inkscape:current-layer="svg2" />
  <!-- Generator: Sketch 3.3.1 (12005) - http://www.bohemiancoding.com/sketch -->
  <title
     id="title4">maestro</title>
  <desc
     id="desc6">Created with Sketch.</desc>
  <defs
     id="defs8" />
  <g
     id="Page-1"
     stroke="none"
     stroke-width="1"
     fill="none"
     fill-rule="evenodd"
     sketch:type="MSPage">
    <rect
       id="Rectangle-1"
       stroke="#393939"
       stroke-width="30"
       sketch:type="MSShapeGroup"
       x="15"
       y="15"
       width="750"
       height="471"
       rx="40" />
    <path
       d="M718.706273,250.478786 C718.706273,362.903316 627.193279,454.374361 514.661287,454.374361 C467.761163,454.374361 424.490515,438.496265 389.980825,411.780789 C355.466571,438.496265 312.218749,454.374361 265.299907,454.374361 C152.804438,454.374361 61.2937269,362.903316 61.2937269,250.478786 C61.2937269,138.082998 152.804438,46.6256391 265.299907,46.6256391 C312.218749,46.6256391 355.466571,62.5429696 389.980825,89.231529 C424.490515,62.5429696 467.761163,46.6256391 514.661287,46.6256391 C627.193279,46.6256391 718.706273,138.082998 718.706273,250.478786 L718.706273,250.478786 Z M514.389277,64.6256391 C473.008694,64.6256391 434.81018,78.1752154 403.907139,101.036133 C434.079719,129.070526 455.710478,166.110597 464.594703,207.782159 L445.894917,207.782159 C437.175045,170.499382 417.169561,137.528746 389.708815,112.67417 C362.26633,137.528746 342.269976,170.499382 333.540974,207.782159 L314.850318,207.782159 C323.725412,166.110597 345.365302,129.070526 375.515056,101.036133 C344.653103,78.1752154 306.418066,64.6256391 265.027896,64.6256391 C162.46395,64.6256391 79.2937269,147.706896 79.2937269,250.221074 C79.2937269,352.733883 162.46395,435.875361 265.027896,435.875361 C306.418066,435.875361 344.653103,422.315292 375.515056,399.45483 C349.168262,374.924166 329.313435,343.591797 318.785674,308.188625 L337.90091,308.188625 C348.068006,339.13093 366.151466,366.454084 389.708815,387.82683 C413.320948,366.454084 431.367885,339.13093 441.534981,308.188625 L460.645652,308.188625 C450.154414,343.591797 430.267629,374.924166 403.907139,399.45483 C434.81018,422.315292 473.008694,435.875361 514.389277,435.875361 C616.982442,435.875361 700.140794,352.733883 700.140794,250.221074 C700.140794,147.706896 616.982442,64.6256391 514.389277,64.6256391 L514.389277,64.6256391 Z"
       id="path14-path"
       fill="#393939"
       sketch:type="MSShapeGroup" />
    <path
       d="M386.259962,293.737693 C378.713392,295.676605 371.404223,296.629638 363.697866,296.629638 C339.127003,296.629638 326.293727,285.432761 326.293727,263.99797 C326.293727,239.018391 342.592125,220.625639 364.752468,220.625639 C382.845059,220.625639 394.409161,230.95434 394.409161,247.091566 C394.409161,252.423347 393.633046,257.637881 391.706457,265.055019 L347.988401,265.055019 C346.408781,275.501423 354.051223,280.099155 367.067114,280.099155 C374.860214,280.099155 381.88633,278.714543 389.683995,275.560275 L386.259962,293.737693 L386.259962,293.737693 Z M374.545013,250.704402 C374.545013,249.088033 376.969228,237.880663 364.332263,237.625639 C357.351801,237.625639 352.334451,242.285872 350.293727,250.704402 L374.545013,250.704402 Z"
       id="path13"
       fill="#393939"
       sketch:type="MSShapeGroup" />
    <path
       d="M405.757937,245.391254 C405.757937,254.631426 410.967033,261.036224 422.805057,265.755309 C431.835374,269.465246 433.259772,270.530964 433.259772,273.84947 C433.259772,278.474118 429.287893,280.549895 420.408234,280.51066 C413.742782,280.470057 407.652569,279.650239 400.498622,277.659319 L397.293727,294.471742 C403.671559,295.961739 412.637961,296.467681 420.590849,296.629638 C444.180155,296.629638 455.054884,288.89908 455.054884,272.201166 C455.054884,262.176761 450.530595,256.260112 439.290635,251.853078 C429.936177,248.128542 428.858748,247.283632 428.858748,243.904906 C428.858748,239.925345 432.565834,237.906595 439.820219,237.906595 C444.202982,237.906595 450.206453,238.316276 455.913175,239.018391 L459.090678,222.04766 C453.306345,221.27757 444.48147,220.625639 439.391074,220.625639 C414.349978,220.625639 405.680326,231.872244 405.757937,245.391254 L405.757937,245.391254 Z"
       id="path15"
       fill="#393939"
       sketch:type="MSShapeGroup" />
    <path
       d="M311.552876,295.453516 L293.188645,295.453516 L293.638335,287.754893 C288.045747,293.778296 280.61103,296.629638 270.474522,296.629638 C258.515059,296.629638 250.293727,288.44469 250.293727,276.700811 C250.293727,258.82632 264.56601,248.515412 289.074783,248.515412 C291.580263,248.515412 294.811637,248.6687 298.089578,249.044621 C298.762058,246.629876 298.94376,245.613886 298.94376,244.311393 C298.94376,239.415754 295.106104,237.621461 284.76598,237.621461 C274.609841,237.663889 267.754927,239.169854 261.397182,240.878834 L264.524922,224.480197 C275.537069,221.703674 282.748996,220.625639 290.888151,220.625639 C309.863687,220.625639 319.907517,228.033653 319.907517,242.021196 C320.058175,245.737064 318.757042,253.248639 318.104193,256.497344 C317.350906,261.280299 312.105287,288.89908 311.552876,295.453516 Z M296.078431,262.955482 C293.76698,262.696809 292.73977,262.625639 291.138236,262.625639 C278.610383,262.625639 272.293727,266.323715 272.293727,273.692495 C272.293727,278.357746 275.380835,281.209088 280.210092,281.209088 C289.181972,281.209088 295.693113,273.692495 296.078431,262.955482 L296.078431,262.955482 Z"
       id="path17"
       fill="#393939"
       sketch:type="MSShapeGroup" />
    <path
       d="M499.426743,278.958957 C497.901907,279.482691 495.984448,279.689357 493.478056,279.689357 C488.259829,279.689357 485.97714,278.05702 485.97714,274.271807 C485.97714,271.91044 492.154096,240.925251 492.154096,240.925251 L503.421448,240.925251 L506.434597,223.102768 L495.231161,223.102768 L498.568452,205.625639 L476.727685,205.625639 C476.727685,205.625639 466.948647,258.447088 466.341451,262.089506 C465.729691,265.712307 462.953941,278.713057 463.328302,281.478631 C463.328302,291.700577 469.459604,297.438845 480.726956,297.438845 C485.771698,297.438845 490.483168,296.770947 496.491205,295.117169 L499.426743,278.958957 L499.426743,278.958957 Z"
       id="path19"
       fill="#393939"
       sketch:type="MSShapeGroup" />
    <path
       d="M596.821678,296.629638 C572.218858,296.629638 562.293727,281.687238 562.293727,263.427701 C562.293727,237.906595 579.098882,220.625639 605.112403,220.625639 C627.711022,220.625639 639.708835,234.855431 639.708835,253.114968 C639.708835,283.401237 621.69842,296.629638 596.821678,296.629638 Z M604.244792,238.625639 C593.182882,238.625639 586.293727,251.717176 586.293727,263.298642 C586.293727,273.082622 590.98237,279.595999 598.7846,279.494263 C609.48128,279.494263 616.247169,269.705265 616.247169,253.226334 C616.247169,245.732552 613.188366,238.625639 604.244792,238.625639 Z"
       id="path21"
       fill="#393939"
       sketch:type="MSShapeGroup" />
    <path
       d="M520.766339,222.389723 C517.995154,245.029377 513.059981,267.982451 509.234195,290.627579 L508.293727,295.601232 L530.376458,295.601232 C538.324781,251.799603 540.977265,239.317569 557.636328,243.726428 C558.494619,241.37601 565.662262,223.022037 565.662262,223.022037 C554.052506,218.748674 546.556156,224.865144 539.790267,233.484865 C540.397462,229.565981 541.547937,225.820002 541.260318,222.389723 L520.766339,222.389723 L520.766339,222.389723 Z"
       id="path23"
       fill="#393939"
       sketch:type="MSShapeGroup" />
    <path
       d="M253.290474,206.625639 L217.566395,206.625639 L193.405504,261.970412 L191.591679,206.625639 L157.276475,206.625639 L140.293727,296.063335 L160.229818,296.063335 L173.328343,227.72055 L176.973797,296.063335 L197.009413,296.063335 L227.069685,227.301745 L214.012248,296.063335 L235.973997,296.063335 L253.290474,206.625639 L253.290474,206.625639 Z"
       id="path25"
       fill="#393939"
       sketch:type="MSShapeGroup" />
    <g
       id="path14-path-+-path14-path"
       sketch:type="MSLayerGroup"
       transform="translate(691.000000, 357.000000)"
       fill="#393939" />
    <g
       id="path14-path-+-path14-path-copy"
       sketch:type="MSLayerGroup"
       transform="translate(633.000000, 289.000000)"
       fill="#393939" />
  </g>
</svg>

<svg xmlns="http://www.w3.org/2000/svg" width="780" height="501" viewBox="0 0 780 501"><title>maestro</title><g fill="none" fill-rule="evenodd"><rect stroke="#393939" stroke-width="30" x="15" y="15" width="750" height="471" rx="40"/><path d="M718.706 250.479c0 112.424-91.513 203.895-204.045 203.895-46.9 0-90.17-15.878-124.68-42.593-34.514 26.715-77.762 42.593-124.681 42.593-112.496 0-204.006-91.47-204.006-203.895 0-112.396 91.51-203.853 204.006-203.853 46.919 0 90.167 15.917 124.68 42.606 34.51-26.689 77.781-42.606 124.681-42.606 112.532 0 204.045 91.457 204.045 203.853zM514.39 64.626c-41.38 0-79.579 13.55-110.482 36.41 30.173 28.035 51.803 65.075 60.688 106.746h-18.7c-8.72-37.283-28.725-70.253-56.186-95.108-27.443 24.855-47.439 57.825-56.168 95.108h-18.69c8.874-41.671 30.514-78.711 60.664-106.746-30.862-22.86-69.097-36.41-110.487-36.41-102.564 0-185.734 83.08-185.734 185.595 0 102.513 83.17 185.654 185.734 185.654 41.39 0 79.625-13.56 110.487-36.42-26.347-24.53-46.202-55.863-56.73-91.266h19.116c10.167 30.942 28.25 58.265 51.808 79.638 23.612-21.373 41.659-48.696 51.826-79.638h19.11c-10.49 35.403-30.377 66.735-56.738 91.266 30.903 22.86 69.102 36.42 110.482 36.42 102.593 0 185.752-83.141 185.752-185.654 0-102.514-83.159-185.595-185.752-185.595z" fill="#393939"/><path d="M386.26 293.738c-7.547 1.939-14.856 2.892-22.562 2.892-24.571 0-37.404-11.197-37.404-32.632 0-24.98 16.298-43.372 38.458-43.372 18.093 0 29.657 10.328 29.657 26.466 0 5.331-.776 10.546-2.703 17.963h-43.718c-1.58 10.446 6.063 15.044 19.08 15.044 7.792 0 14.818-1.384 22.616-4.539l-3.424 18.178zm-11.715-43.034c0-1.616 2.424-12.823-10.213-13.078-6.98 0-11.998 4.66-14.038 13.078h24.251zM405.758 245.391c0 9.24 5.209 15.645 17.047 20.364 9.03 3.71 10.455 4.776 10.455 8.094 0 4.625-3.972 6.7-12.852 6.662-6.665-.04-12.755-.86-19.91-2.852l-3.204 16.813c6.378 1.49 15.344 1.996 23.297 2.158 23.59 0 34.464-7.73 34.464-24.429 0-10.024-4.524-15.94-15.764-20.348-9.355-3.724-10.432-4.57-10.432-7.948 0-3.98 3.707-5.998 10.961-5.998 4.383 0 10.386.41 16.093 1.111l3.178-16.97c-5.785-.77-14.61-1.422-19.7-1.422-25.041 0-33.71 11.246-33.633 24.765zM311.553 295.454h-18.364l.45-7.7c-5.593 6.024-13.028 8.876-23.164 8.876-11.96 0-20.181-8.185-20.181-19.93 0-17.874 14.272-28.185 38.78-28.185 2.506 0 5.738.154 9.016.53.672-2.415.854-3.431.854-4.734 0-4.895-3.838-6.69-14.178-6.69-10.156.043-17.011 1.549-23.369 3.258l3.128-16.399c11.012-2.776 18.224-3.854 26.363-3.854 18.976 0 29.02 7.408 29.02 21.395.15 3.716-1.151 11.228-1.804 14.476-.753 4.783-5.999 32.402-6.551 38.957zm-15.475-32.499c-2.311-.258-3.338-.33-4.94-.33-12.528 0-18.844 3.699-18.844 11.067 0 4.666 3.087 7.517 7.916 7.517 8.972 0 15.483-7.517 15.868-18.254zM499.427 278.959c-1.525.524-3.443.73-5.949.73-5.218 0-7.5-1.632-7.5-5.417 0-2.362 6.176-33.347 6.176-33.347h11.267l3.014-17.822H495.23l3.337-17.477h-21.84s-9.78 52.821-10.387 56.464c-.611 3.622-3.387 16.623-3.013 19.389 0 10.222 6.132 15.96 17.399 15.96 5.045 0 9.756-.668 15.764-2.322l2.936-16.158zM596.822 296.63c-24.603 0-34.528-14.943-34.528-33.202 0-25.521 16.805-42.802 42.818-42.802 22.599 0 34.597 14.23 34.597 32.489 0 30.286-18.01 43.515-42.887 43.515zm7.423-58.004c-11.062 0-17.951 13.091-17.951 24.673 0 9.784 4.688 16.297 12.49 16.195 10.697 0 17.463-9.789 17.463-26.268 0-7.493-3.059-14.6-12.002-14.6zM520.766 222.39c-2.77 22.64-7.706 45.592-11.532 68.238l-.94 4.973h22.082c7.949-43.801 10.601-56.283 27.26-51.875.859-2.35 8.026-20.704 8.026-20.704-11.61-4.273-19.106 1.843-25.872 10.463.607-3.919 1.758-7.665 1.47-11.095h-20.494zM253.29 206.626h-35.724l-24.16 55.344-1.814-55.344h-34.316l-16.982 89.437h19.936l13.098-68.342 3.646 68.342h20.035l30.06-68.761-13.057 68.761h21.962l17.316-89.437z" fill="#393939"/></g></svg>
